!!!!SEGMENT: pl-wtm--1535-sp-7898_krupinski-wiktor--w-kawiarni-gwar.krn
!!!cenid: 19xx:40
!!!COM: Krupiński, Wiktor
!!!COM-rismID: pe50047127
!!!CDT: 1879-1951
!!!CNT: Polish
!!!OTL: W kawiarni gwar
!!!PDT:
!!!AGN: Secular
!!!YEC: Copyright 2022 Narodowy Instytut Fryderyka Chopina (https://polishscores.org)
!!!YEM: License CC-BY-4.0 (https://creativecommons.org/licenses/by/4.0)
!!!SMS-siglum: PL-Wtm
!!!SMS-shelfmark: 1535 śp 7898
!!!SMS-variant:
!!!SMS-altvar:
!!!SMS-shelfwork: W
!!!NIFC-rismSourceID: 1001196129
!!!NIFC-rismChildID: 1001196129
!!!NIFC-islandoraID: pl-wtm:56686
!!!URL-pdf-islandora: https://repozytorium.nifc.pl/islandora/object/pl-wtm%3A56686/datastream/PDF/view
!!!URL-scan: https://polish.musicsources.pl/pl/lokalizacje/galeria/druki-muzyczne/18761/2 @EN{Scan on Polish Music Sources Website} @PL{Skany w portalu Dziedzictwo Muzyki Polskiej w otwartym dostępie}
!!!IIIF:
!!!ONB-nifc:
!!!AIN: 2 piano 1 vox
!!!key: g
**kern	**kern	**dynam	**kern	**text	**text	**dynam
*part3	*part2	*part2	*part1	*part1	*part1	*part1
*staff3	*staff2	*	*staff1	*staff1	*staff1	*
*I"PIANO.	*I"PIANO.	*	*I"ŚPIEW.	*	*	*
*I'[pf]	*I'[pf]	*	*I'[V]	*	*	*
*ICklav	*ICklav	*	*ICvox	*	*	*
*Ipiano	*Ipiano	*	*Ivox	*	*	*
*clefF4	*clefG2	*	*clefG2	*	*	*
*k[b-e-]	*k[b-e-]	*	*k[b-e-]	*	*	*
*g:	*g:	*	*g:	*	*	*
*M3/4	*M3/4	*	*M3/4	*	*	*
=1	=1	=1	=1	=1	=1	=1
*^	*	*	*	*	*	*
!	!	!	!	!LO:TX:a:B:t=Allegretto.	!	!	!
4r	2AA\	4r	.	2.r	.	.	.
2D/ 2F#X 2A	.	8e-/L	.	.	.	.	.
.	.	8f#X/J	.	.	.	.	.
.	4DD\	4c/ 4a	.	.	.	.	.
=2	=2	=2	=2	=2	=2	=2	=2
4r	2BB-\	4r	.	2.r	.	.	.
2D/ 2G	.	8g/L	.	.	.	.	.
.	.	8f#X/J 8a	.	.	.	.	.
.	4GG\	4d/ 4b-	.	.	.	.	.
=3	=3	=3	=3	=3	=3	=3	=3
!	!	!LO:TX:a:i:t=poco ritardando	!	!	!	!	!
4r	2E-\	8r	.	2.r	.	.	.
.	.	8cc\	.	.	.	.	.
2G/ 2c	.	8b-\L 8dd	.	.	.	.	.
.	.	8a\J 8ee-	.	.	.	.	.
.	4D\	8cc\L 8ff#X	.	.	.	.	.
.	.	8f#X\J 8b-	.	.	.	.	.
=4	=4	=4	=4	=4	=4	=4	=4
2G/	4r	4g\ 4b- 4dd 4gg	.	2.r	.	.	.
.	4GG\	4r	.	.	.	.	.
4r	4r	4r	.	.	.	.	.
=5||	=5||	=5||	=5||	=5||	=5||	=5||	=5||
*	*^	*^	*	*	*	*	*
!	!	!	!	!	!	!LO:TX:a:B:t=Moderato assai.	!	!	!
4r	2.AA\	4ryy	8r	4ryy	.	8r	.	.	.
.	.	.	8g/	.	.	8g/	1. W ka-	2. W ka-	.
!	!	!	!	!	!	!	!	!	!LO:HP:a
4d/	.	2E-\ 2G	4.dd/	2e-\ 2g	.	4.dd\	-wia-	-wia-	>
4c/	.	.	.	.	.	.	.	.	.
.	.	.	8cc/	.	.	8cc\	-rni	-rni	]
*	*v	*v	*	*	*	*	*	*	*
!!LO:LB:g=original	!	!	!	!	!	!	!	!
=6	=6	=6	=6	=6	=6	=6	=6	=6
4r	2.AA\	2.f#X/	4r	.	2.f#X/	gwar,	gwar,	.
4F#X/	.	.	(4d\ 4e-	.	.	.	.	.
4F#/	.	.	4c\) 4e-	.	.	.	.	.
=7	=7	=7	=7	=7	=7	=7	=7	=7
*^	*	*	*	*	*	*	*	*
4r	4r	2.AA\	8r	4ryy	.	8r	.	.	.
.	.	.	8g/	.	.	8g/	W ka-	W ka-	.
!	!	!	!	!	!	!	!	!	!LO:HP:a
4d/	2E-\ 2G	.	4.dd/	2g\	>	4.dd\	-wia-	-wia-	>
4c/	.	.	.	.	.	.	.	.	.
.	.	.	8cc/	.	]]	8cc\	-rni	-rni	]
*v	*v	*	*	*	*	*	*	*	*
=8	=8	=8	=8	=8	=8	=8	=8	=8
4r	2.AA\	2.f#X/	4r	.	2.f#X/	gwar,	gwar,	.
4F#X/	.	.	4d\ 4e-	.	.	.	.	.
4F#/	.	.	4c\ 4e-	.	.	.	.	.
*	*	*v	*v	*	*	*	*	*
=9	=9	=9	=9	=9	=9	=9	=9
4r	2.GG\	4B-/ 4d 4g	.	4g/	Snu-	W my-	.
4G/	.	4B-/ 4d 4g	.	4g/	-je	-śli	.
4G/	.	4B-/ 4d 4g	.	4g/	się	się	.
=10	=10	=10	=10	=10	=10	=10	=10
!	!	!	!	!	!	!	!LO:HP:a
4r	2FF\	2A/ 2c 2f 2a	>	2a/	szu-	plą-	<
2F/	.	.	.	.	.	.	.
.	4FF\	4A/ 4c 4f 4a	]]	4a/	-mny	-czą	[[
=11	=11	=11	=11	=11	=11	=11	=11
4r	2EEn\	2A/ 2c#X 2g 2a	>	2a/	wal-	wi-	>
4En/	.	.	.	.	.	.	.
4EE-X/ 4E-X	4ryy	4G/ 4A 4c#X 4g 4a	]]	4a/	-ca	-dma	.
*v	*v	*	*	*	*	*	*
!!LO:LB:g=original	!	!	!	!	!	!
=12	=12	=12	=12	=12	=12	=12
*	*^	*	*	*	*	*
*	*	*^	*	*	*	*	*
!	!	!	!	!	!LO:TX:b:i:t=rit.	!	!	!
2.DD/ 2.D	2b-/ 2dd	4r	2c\ 2d 2f	ff	2.dd\	czar.	mar.	]]
!	!LO:TX:b:i:t=rit.	!	!	!	!	!	!	!
.	.	4g#X^^>\	.	.	.	.	.	.
.	4ryy	4a^^\	4ryy	.	.	.	.	.
*	*v	*v	*v	*	*	*	*	*
=13	=13	=13	=13	=13	=13	=13
*^	*	*	*	*	*	*
!	!	!	!	!LO:TX:a:i:t=poco mosso	!	!	!
4r	2FF#X\	8r	.	8r	.	.	.
.	.	8a/	.	8a/	W o-	Wskrze-	.
2D/ 2A	.	8b-\L	.	8b-\	-ko-	-sza-	.
.	.	8cc\	.	8cc\	-ło	-ja	.
.	4FF#\	8b-\	.	8b-\	pu-	daw-	.
.	.	8a\J	.	8a/	-ste	-ne	.
=14	=14	=14	=14	=14	=14	=14	=14
4r	2.GG\	8.dd/L	.	8.dd\	o-	zmar-	.
.	.	16d/Jk	.	16d/	-bce	-łe	.
4D/ 4B-	.	4a/	.	4a/	twa-	dzie-	.
4D/ 4B-	.	4g/	.	4g/	-rze,	-je,	.
=15	=15	=15	=15	=15	=15	=15	=15
!	!	!LO:TX:b:i:t=poco meno	!	!	!	!	!
4r	2BB-\	8r	.	8r	.	.	.
.	.	8dd\	.	8dd\	Przez	Tłum	.
2F/ 2A-X 2B-	.	8een\L	.	8een\	ko-	roz-	.
.	.	8ff\	.	8ff\	-lo-	-ba-	.
.	4BB-\	8ee\	.	8ee\	-ro-	-wio-	.
.	.	8dd\J	.	8dd\	-we	-ny	.
=16	=16	=16	=16	=16	=16	=16	=16
4EE-/ 4E-	4ryy	8.gg\L	.	8.gg\	lamp	tłum	.
.	.	16g\Jk	.	16g/	wi-	się	.
4e-/	2E-\ 2G 2B-	4g/	.	4g/	-tra-	śmie-	.
4d-X/	.	4g/	.	4g/	-że	-je	.
*v	*v	*	*	*	*	*	*
!!LO:PB:g=original	!	!	!	!	!	!
=17	=17	=17	=17	=17	=17	=17
2.En\ 2.G 2.B- 2.dn	8r	.	8r	.	.	.
.	8g/	.	8g/	Na	Snu-	.
.	8f#X/L	.	8f#X/	sa-	-je	.
.	8g/	.	8g/	-lę	się	.
.	8a/	.	8a/	spły-	wal-	.
.	8b-/J	.	8b-\	-wa	-ca	.
=18	=18	=18	=18	=18	=18	=18
*^	*	*	*	*	*	*
!	!	!	!	!	!	!	!LO:DY:a:t=poco a poco cresc.
4r	2.D\	8.dd\L	.	8.dd\	świa-	szum-	<
.	.	16b-\Jk	.	16b-\	-teł	-ny	.
4G/ 4B- 4d	.	4.dd\	.	4.dd\	żar.	czar,	.
4G/ 4B- 4d	.	.	.	.	.	.	.
.	.	8dd\	.	8dd\	W ka-	W ka-	.
*v	*v	*	*	*	*	*	*
=19	=19	=19	=19	=19	=19	=19
4GG#X/	8.een\L	.	8.een\	-wiar-	-wiar-	.
.	16bn\Jk	.	16bn\	-ni	-ni	.
4E-\ 4G#X 4d	4.ee\	.	4.ee\	gwar,	gwar,	.
4E-\ 4G# 4d	.	.	.	.	.	.
.	8ee\	.	8ee\	W ka-	W ka-	.
=20	=20	=20	=20	=20	=20	=20
*^	*^	*	*	*	*	*
!	!	!	!	!	!LO:TX:a:i:t=ten.	!	!	!
4r	2AAA\	2ff/	4r	.	2ff\	-wiar-	-wiar-	.
2AA/	.	.	2g\ 2a 2cc#X	.	.	.	.	.
.	4AAA\	4een/	.	.	4een\	-ni	-ni	.
*v	*v	*	*	*	*	*	*	*
=21	=21	=21	=21	=21	=21	=21	=21
*	*	*^	*	*	*	*	*
2.DD/ 2.D	2.dd/	2.d\	4rc	.	2.dd\	gwar,	gwar,	.
.	.	.	2f\ 2a	.	.	.	.	.
*	*v	*v	*v	*	*	*	*	*
!!LO:LB:g=original	!	!	!	!	!	!
=22	=22	=22	=22	=22	=22	=22
!	!	!	!LO:TX:a:B:t=Tempo di Valse.	!	!	!
4CC/ 4C	8r	.	8r	.	.	.
.	8dd\	.	8dd\	W ka-	W ka-	.
4F\ 4A 4e-X	8.ff\L	.	8.ff\	-wiar-	-wiar-	.
.	16ee-X\Jk	.	16ee-X\	-ni	-ni	.
4F\ 4A 4e-	4g/	.	4g/	gwar,	gwar,	.
=23	=23	=23	=23	=23	=23	=23
4FF/	8r	.	8r	.	.	.
.	8a/	.	8a/	W ka-	W ka-	.
4F\ 4A 4e-	8.dd\L	.	8.dd\	-wiar-	-wiar-	.
.	16cc\Jk	.	16cc\	-ni	-ni	.
4F\ 4A 4e-	4g/	.	4g/	gwar,	gwar.	.
=24	=24	=24	=24	=24	=24	=24
4BBB-/ 4BB-	8r	.	8r	.	.	.
.	8f/	.	8f/	Ust	Ci-	.
4F\ 4B- 4d	8g/L	.	8g/	pur-	-chnie	.
.	8a/	.	8a/	-pu-	jak	.
4F\ 4B- 4d	8b-/	.	8b-\	-ro-	wi-	.
.	8cc/J	.	8cc\	-wych	-dma	.
=25	=25	=25	=25	=25	=25	=25
4FF/	8.dd\L	.	8.dd\	słod-	zwiew-	.
.	16b-\Jk	.	16b-\	-ki	-nych	.
4F\ 4B- 4d	2dd\	.	2dd\	war,	mar,	.
4F\ 4B- 4d	.	.	.	.	.	.
=26	=26	=26	=26	=26	=26	=26
4CC/ 4C	8r	.	8r	.	.	.
.	8f/	.	8f/	Ka-	W o-	.
4F\ 4A 4e-	8g/L	.	8g/	-ska-	-ko-	.
.	8a/	.	8a/	-dą	-ło	.
4F\ 4A 4e-	8b-/	.	8b-\	śmie-	pu-	.
.	8cc/J	.	8cc\	-chu	-sto	.
!!LO:LB:g=original	!	!	!	!	!	!
=27	=27	=27	=27	=27	=27	=27
4FF/	8.ee-\L	.	8.ee-\	tę-	ble-	.
.	16cc\Jk	.	16cc\	-tni	-dną	.
4F\ 4A 4e-	4ee-\	.	4ee-\	zło-	twa-	.
4F\ 4A 4e-	4ee-\	.	4ee-\	-tą,	-rze,	.
=28	=28	=28	=28	=28	=28	=28
*^	*^	*	*	*	*	*
4BBB-/ 4BB-	4ryy	8r	2ryy	.	8r	.	.	.
.	.	8f/	.	.	8f/	Pra-	I	.
8e-/L	4F\ 4G 4B-	8b-/L	.	.	8b-\	-gnie-	ko-	.
8d/J	.	8dd/J	.	.	8dd\	-nia	-lo-	.
8a/L	4B-\ 4d	8aa/L	4b-\ 4dd	.	8aa;\	w rym	-ro-	.
8g/J	.	8gg/J	.	.	8gg\	się	-wych	.
*v	*v	*	*	*	*	*	*	*
*	*v	*v	*	*	*	*	*
=29	=29	=29	=29	=29	=29	=29
(8f\L	(8ff\L	>	8ff\	mięk-	lamp-	.
8d\	8dd\	.	8dd\	-ki	-wi-	.
8B-\	8b-\	.	8b-\	plo-	-tra-	.
8G\J)	8g\J)	.	8g/	-tą	-że,	.
4r	4r	]]	4r	.	.	.
=30	=30	=30	=30	=30	=30	=30
*^	*^	*	*	*	*	*
!	!	!LO:TUP:a:problem:klamra łukowa	!	!	!LO:TX:a:B:t=molto meno.	!	!	!
2.B-/	4En\	12b-/L	2.c#X\	.	12b-\	U-	Ga-	.
.	.	12b-/	.	.	12b-\	-pa-	-śnie	.
.	.	12b-/J	.	.	12b-\	-ja	jak	.
.	2E-X\	8.a/L	.	.	8.a/	spoj-	świa-	.
.	.	16g/Jk	.	.	16g/	-rzeń	-teł	.
.	.	8.f#X/L	.	.	8.f#X/	ja-	ja-	.
.	.	16g/Jk	.	.	16g/	-snych	-snych	.
*v	*v	*	*	*	*	*	*	*
*	*v	*v	*	*	*	*	*
!!LO:LB:g=original	!	!	!	!	!	!
=31	=31	=31	=31	=31	=31	=31
(8D\L	2.dd/	.	2dd\	czar	żar	.
16G\L	.	.	.	.	.	.
16B-\JJ	.	.	.	.	.	.
16d>\LL	.	.	.	.	.	.
16g>\	.	.	.	.	.	.
16b->\	.	.	.	.	.	.
16dd>\JJ	.	.	.	.	.	.
8ddd>\)	.	.	4r	.	.	.
8r	.	.	.	.	.	.
=32	=32	=32	=32	=32	=32	=32
*^	*^	*	*	*	*	*
4r	2DD\	8r	4ryy	.	8r	.	.	.
.	.	8d/	.	.	8d/	W ka-	W ka-	.
2D/	.	4.b-/	4e-\ 4f#X	.	4.b-;\	-wiar-	-wiar-	.
.	4DD\	.	4c\ 4d	.	.	.	.	.
.	.	8f#/ 8a	.	.	8a/	-ni	-ni	.
*	*	*v	*v	*	*	*	*	*
=33	=33	=33	=33	=33	=33	=33	=33
!	!	!LO:TX:b:i:t=piu vivo	!	!	!	!	!
4r	4GG\	8B-/ 8d 8g	.	4g/	gwar.	gwar.	.
.	.	8r	.	.	.	.	.
2D/ 2B-	4r	8d/L	.	4r	.	.	.
.	.	8B-/J 8e-	.	.	.	.	.
.	4DD\	4A/ 4g	.	4r	.	.	.
=34	=34	=34	=34	=34	=34	=34	=34
4r	2AA\	4r	.	2r	.	.	.
2D/ 2F#X 2A	.	8e-/L	.	.	.	.	.
.	.	8f#X/J	.	.	.	.	.
.	4DD\	4c/ 4a	.	4r	.	.	.
=35	=35	=35	=35	=35	=35	=35	=35
4r	2BB-\	4r	.	2r	.	.	.
2D/ 2G	.	8g/L	.	.	.	.	.
.	.	8f#X/J 8a	.	.	.	.	.
.	4GG\	4d/ 4b-	.	4r	.	.	.
=36	=36	=36	=36	=36	=36	=36	=36
4r	2E-\	8r	.	2r	.	.	.
.	.	8cc\	.	.	.	.	.
2G/ 2c	.	8b-\L 8dd	.	.	.	.	.
.	.	8a\J 8ee-	.	.	.	.	.
.	4D\	8cc\L 8ff#X	.	4r	.	.	.
.	.	8f#X\J 8b-	.	.	.	.	.
=37	=37	=37	=37	=37	=37	=37	=37
4G/	4GG\	4g\ 4b- 4dd 4gg	.	2r	.	.	.
4ryy	4GGG\	2r	.	.	.	.	.
4r	4r	.	.	4r	.	.	.
*v	*v	*	*	*	*	*	*
==	==	==	==	==	==	==
*-	*-	*-	*-	*-	*-	*-
!!!system-decoration: s1{(s2,s3)}
!!!RDF**kern: > = above
!!!RDF**kern: < = below
!!!ENC: Berenika Jozajtis
!!!END: 2023-08-21
!!!ENC: Jan Barakat
!!!END: 2023-09-20
